X: 28335
T: Mug Of Brown Ale, The
R: jig
M: 6/8
K: Adorian
gf|:eAA fAA|~g3 age|dBG GAG|~B3 Bcd|
eAA fAA|~g3 age|dBd gdB|1 ABA Agf:|2 ABA A2e||
|:efg ~a3|aba age|def g2a|bag fed|
efg ~a3|aga age|dBd gdB|1 ABA A2e:|2 ABA Agf||

